src/images/svg/be-square/red-mark-icon.svg

<svg width="24" height="24" viewBox="0 0 24 24" fill="none" xmlns="http://www.w3.org/2000/svg">
<rect width="24" height="24" rx="4" fill="#FF444F"/>
<path d="M15.2522 7.96512L10.5371 12.642L8.74784 10.8706C8.11917 10.247 7.10017 10.247 6.4715 10.8706C5.84283 11.4942 5.84283 12.5049 6.4715 13.1285L9.39724 16.0306C9.71157 16.3424 10.1226 16.5 10.5337 16.5C10.9447 16.5 11.3592 16.3424 11.6701 16.0306L17.5285 10.223C18.1572 9.59946 18.1572 8.5887 17.5285 7.96512C16.8998 7.34496 15.8808 7.34496 15.2522 7.96512Z" fill="white"/>
</svg>

<svg xmlns="http://www.w3.org/2000/svg" width="24" height="24" fill="none"  xmlns:v="https://vecta.io/nano"><rect width="24" height="24" rx="4" fill="#ff444f"/><path d="M15.252 7.965l-4.715 4.677-1.789-1.771a1.62 1.62 0 0 0-2.276 0 1.59 1.59 0 0 0 0 2.258l2.926 2.902a1.61 1.61 0 0 0 1.136.469c.411 0 .825-.158 1.136-.469l5.858-5.808c.629-.624.629-1.634 0-2.258s-1.648-.62-2.276 0z" fill="#fff"/></svg>
